app/assets/images/heroicons/outline/h3.svg

<svg width="24" height="24" viewBox="0 0 24 24" fill="none" xmlns="http://www.w3.org/2000/svg">
<path d="M20.9055 14.6257C21.437 15.3646 21.75 16.2711 21.75 17.2508C21.75 17.5866 21.7132 17.9139 21.6435 18.2287C21.4894 18.9241 20.8486 19.3722 20.1393 19.4374C19.6818 19.4794 19.2184 19.5008 18.75 19.5008C17.9853 19.5008 17.2339 19.4436 16.5 19.3332M20.9055 14.6257C21.437 13.8869 21.75 12.9803 21.75 12.0007C21.75 11.6648 21.7132 11.3376 21.6435 11.0228C21.4894 10.3273 20.8486 9.87924 20.1393 9.8141C19.6818 9.77209 19.2184 9.75061 18.75 9.75061C17.9853 9.75061 17.2339 9.80784 16.5 9.91824M20.9055 14.6257H18M2.24268 4.49316V11.9939M2.24268 11.9939V19.4946M2.24268 11.9939L12.7429 11.9946M12.7429 4.49389V11.9946M12.7429 11.9946V19.4953" stroke="black" stroke-width="1.5" stroke-linecap="round" stroke-linejoin="round"/>
</svg>

<svg xmlns="http://www.w3.org/2000/svg" fill="none" viewBox="0 0 24 24" stroke-width="1.5" stroke="currentColor" aria-hidden="true" data-slot="icon">
  <path stroke-linecap="round" stroke-linejoin="round" d="M20.905 14.626a4.52 4.52 0 0 1 .738 3.603c-.154.695-.794 1.143-1.504 1.208a15.194 15.194 0 0 1-3.639-.104m4.405-4.707a4.52 4.52 0 0 0 .738-3.603c-.154-.696-.794-1.144-1.504-1.209a15.19 15.19 0 0 0-3.639.104m4.405 4.708H18M2.243 4.493v7.5m0 0v7.502m0-7.501h10.5m0-7.5v7.5m0 0v7.501"/>
</svg>
